packages/core/src/svgs/mana.svg

<svg width="24" height="24" viewBox="0 0 24 24" fill="none" xmlns="http://www.w3.org/2000/svg">
<g clip-path="url(#clip0_31_13491)">
<path d="M0 0H24V24H0V0Z" fill="url(#paint0_linear_31_13491)"/>
<path d="M9.85693 9.42871V14.5716H14.2866L9.85693 9.42871Z" fill="url(#paint1_linear_31_13491)"/>
<path d="M5.71533 14.5716H9.85705V9.42871L5.71533 14.5716Z" fill="white"/>
<path d="M7.88574 17.5713C9.03089 18.3783 10.4572 18.857 12 18.857C13.5429 18.857 14.9692 18.3783 16.1143 17.5713H7.88574Z" fill="#FF2D55"/>
<path d="M14.3416 14.5713H5.71533C5.92914 15.0303 6.19735 15.462 6.51419 15.857H14.345V14.5713H14.3416Z" fill="#FFBC5B"/>
<path d="M14.585 12.8569V16.7141H17.729L14.585 12.8569Z" fill="url(#paint2_linear_31_13491)"/>
<path d="M11.4443 16.7141H14.5849V12.8569L11.4443 16.7141Z" fill="white"/>
<path d="M14.5851 11.3141C15.0398 11.3141 15.4758 11.1335 15.7973 10.812C16.1188 10.4905 16.2994 10.0544 16.2994 9.59979C16.2994 9.14513 16.1188 8.7091 15.7973 8.38761C15.4758 8.06612 15.0398 7.8855 14.5851 7.8855C14.1305 7.8855 13.6945 8.06612 13.373 8.38761C13.0515 8.7091 12.8709 9.14513 12.8709 9.59979C12.8709 10.0544 13.0515 10.4905 13.373 10.812C13.6945 11.1335 14.1305 11.3141 14.5851 11.3141ZM9.85714 8.57122C10.0845 8.57122 10.3025 8.48091 10.4632 8.32017C10.624 8.15942 10.7143 7.9414 10.7143 7.71408C10.7143 7.48675 10.624 7.26873 10.4632 7.10799C10.3025 6.94724 10.0845 6.85693 9.85714 6.85693C9.62981 6.85693 9.4118 6.94724 9.25105 7.10799C9.09031 7.26873 9 7.48675 9 7.71408C9 7.9414 9.09031 8.15942 9.25105 8.32017C9.4118 8.48091 9.62981 8.57122 9.85714 8.57122Z" fill="#FFC95B"/>
</g>
<defs>
<linearGradient id="paint0_linear_31_13491" x1="20.4853" y1="3.51472" x2="3.51472" y2="20.4853" gradientUnits="userSpaceOnUse">
<stop stop-color="#FF2D55"/>
<stop offset="1" stop-color="#FFBC5B"/>
</linearGradient>
<linearGradient id="paint1_linear_31_13491" x1="12.1421" y1="9.42871" x2="12.1421" y2="14.5716" gradientUnits="userSpaceOnUse">
<stop stop-color="#A524B3"/>
<stop offset="1" stop-color="#FF2D55"/>
</linearGradient>
<linearGradient id="paint2_linear_31_13491" x1="16.1561" y1="12.8569" x2="16.1561" y2="16.7141" gradientUnits="userSpaceOnUse">
<stop stop-color="#A524B3"/>
<stop offset="1" stop-color="#FF2D55"/>
</linearGradient>
<clipPath id="clip0_31_13491">
<rect width="24" height="24" fill="white"/>
</clipPath>
</defs>
</svg>

<svg xmlns="http://www.w3.org/2000/svg" width="24" height="24" fill="none" viewBox="0 0 24 24"><g clip-path="url(#a)"><path fill="url(#b)" d="M0 0h24v24H0z"/><path fill="url(#c)" d="M9.857 9.429v5.143h4.43z"/><path fill="#fff" d="M5.715 14.572h4.142V9.429z"/><path fill="#FF2D55" d="M7.886 17.571A7.13 7.13 0 0 0 12 18.857a7.13 7.13 0 0 0 4.114-1.286z"/><path fill="#FFBC5B" d="M14.342 14.571H5.715q.322.692.8 1.286h7.83v-1.286z"/><path fill="url(#d)" d="M14.585 12.857v3.857h3.144z"/><path fill="#fff" d="M11.444 16.714h3.14v-3.857z"/><path fill="#FFC95B" d="M14.585 11.314a1.714 1.714 0 1 0 0-3.428 1.714 1.714 0 0 0 0 3.428M9.857 8.571a.857.857 0 1 0 0-1.714.857.857 0 0 0 0 1.714"/></g><defs><linearGradient id="b" x1="20.485" x2="3.515" y1="3.515" y2="20.485" gradientUnits="userSpaceOnUse"><stop stop-color="#FF2D55"/><stop offset="1" stop-color="#FFBC5B"/></linearGradient><linearGradient id="c" x1="12.142" x2="12.142" y1="9.429" y2="14.572" gradientUnits="userSpaceOnUse"><stop stop-color="#A524B3"/><stop offset="1" stop-color="#FF2D55"/></linearGradient><linearGradient id="d" x1="16.156" x2="16.156" y1="12.857" y2="16.714" gradientUnits="userSpaceOnUse"><stop stop-color="#A524B3"/><stop offset="1" stop-color="#FF2D55"/></linearGradient><clipPath id="a"><path fill="#fff" d="M0 0h24v24H0z"/></clipPath></defs></svg>
